src/assets/images/toolbox/heroku.svg

<svg
  width="29"
  height="32"
  viewBox="0 0 29 32"
  fill="transparent"
  xmlns="http://www.w3.org/2000/svg">
  <path
    fill="#430098"
    d="M26.1 0C27.6855 0 28.9739 1.2636 28.9997 2.83242L29 2.88V29.12C29 30.6945 27.7273 31.9741 26.1479 31.9997L26.1 32H2.9C1.31452 32 0.0260547 30.7361 0.000339844 29.1677L0 29.12V2.88C0 1.30511 1.27271 0.025875 2.85208 0.000337501L2.9 0H26.1ZM26.1 1.59998H2.9C2.2006 1.59998 1.62921 2.15663 1.61154 2.84704L1.61109 2.88V29.12C1.61109 29.8146 2.1716 30.382 2.86681 30.3996L2.9 30.4H26.1C26.7997 30.4 27.3708 29.8435 27.3885 29.1531L27.3889 29.12V2.88C27.3889 2.1744 26.811 1.59998 26.1 1.59998ZM7.25 20.8002L10.875 24.0001L7.25 27.2002V20.8002ZM10.4722 4.80005V13.8844C12.0809 13.3645 14.3296 12.7999 16.5139 12.7999C18.5056 12.7999 19.6978 13.5776 20.3471 14.23C21.7188 15.6082 21.7515 17.3598 21.7497 17.5935L21.75 27.2001H18.5278V17.6441C18.512 16.8972 18.1495 16 16.5139 16C13.2704 16 9.63616 17.6039 9.52831 17.6518L9.52605 17.6529L7.25 18.6768V4.79993L10.4722 4.80005ZM21.75 4.80005C21.5325 6.6176 20.7905 8.36 19.3334 10H16.1111C17.3775 8.34999 18.1726 6.61366 18.5278 4.80005H21.75Z"
  />
</svg>

<svg xmlns="http://www.w3.org/2000/svg" width="29" height="32" fill="transparent" xmlns:v="https://vecta.io/nano">
  <path fill="#430098"
    d="M26.1 0c1.585 0 2.874 1.264 2.9 2.832v.048 26.24A2.89 2.89 0 0 1 26.148 32H26.1 2.9C1.315 32 .026 30.736 0 29.168v-.048V2.88A2.89 2.89 0 0 1 2.852 0H2.9h23.2zm0 1.6H2.9c-.699 0-1.271.557-1.288 1.247v.033 26.24c0 .695.561 1.262 1.256 1.28H2.9h23.2c.7 0 1.271-.556 1.288-1.247v-.033V2.88c0-.706-.578-1.28-1.289-1.28zM7.25 20.8l3.625 3.2-3.625 3.2v-6.4zm3.222-16v9.084c1.609-.52 3.857-1.085 6.042-1.085 1.992 0 3.184.778 3.833 1.43 1.372 1.378 1.404 3.13 1.403 3.363V27.2h-3.222v-9.556C18.512 16.897 18.15 16 16.514 16c-3.243 0-6.878 1.604-6.986 1.652l-.002.001-2.276 1.024V4.8h3.222zm11.278 0c-.218 1.818-.959 3.56-2.417 5.2h-3.222c1.266-1.65 2.061-3.386 2.417-5.2h3.222z" />
</svg>
